X: 1
T: 3
M: 3/4
L: 1/8
K: Dm
P: Largo
V:1
[| z2 a2 a2 | (d'6- |d'^c'd'e'ag) | (fefedc) | (BAGABG) | A2 z2 ^c2 | d2 b3 b | (bg) a3 a |]
V:2
[| (defedc) | (BAGABG) | A2 z2 ^c2 | d2 a2 a2 | (d'6- |d'^c'd'e'ag) | (fed=cdB) | (cefefF) |]
